udata_front/theme/gouvfr/templates/svg/search/dataset.svg

<svg fill="none" height="19" viewBox="0 0 20 19" width="20" xmlns="http://www.w3.org/2000/svg"><path d="m18.125.75h-16.25c-1.054688 0-1.875.85938-1.875 1.875v13.75c0 1.0547.820312 1.875 1.875 1.875h16.25c1.0156 0 1.875-.8203 1.875-1.875v-13.75c0-1.01562-.8594-1.875-1.875-1.875zm-11.875 16.25h-4.375c-.35156 0-.625-.2734-.625-.625v-3.125h5zm0-5h-5v-3.75h5zm0-5h-5v-3.75h5zm6.25 10h-5v-3.75h5zm0-5h-5v-3.75h5zm0-5h-5v-3.75h5zm6.25 6.25v3.125c0 .3516-.3125.625-.625.625h-4.375v-3.75zm0-1.25h-5v-3.75h5zm0-5h-5v-3.75h5z" fill="#3a3a3a"/></svg>

<svg width="20" height="19" viewBox="0 0 20 19" fill="none" xmlns="http://www.w3.org/2000/svg">
<path d="M18.125 0.75H1.875C0.820312 0.75 0 1.60938 0 2.625V16.375C0 17.4297 0.820312 18.25 1.875 18.25H18.125C19.1406 18.25 20 17.4297 20 16.375V2.625C20 1.60938 19.1406 0.75 18.125 0.75ZM6.25 17H1.875C1.52344 17 1.25 16.7266 1.25 16.375V13.25H6.25V17ZM6.25 12H1.25V8.25H6.25V12ZM6.25 7H1.25V3.25H6.25V7ZM12.5 17H7.5V13.25H12.5V17ZM12.5 12H7.5V8.25H12.5V12ZM12.5 7H7.5V3.25H12.5V7ZM18.75 13.25V16.375C18.75 16.7266 18.4375 17 18.125 17H13.75V13.25H18.75ZM18.75 12H13.75V8.25H18.75V12ZM18.75 7H13.75V3.25H18.75V7Z" fill="#3A3A3A"/>
</svg>
